X:1
T:Collar-Green
T:Collar-Green
T:William Marshall
C:William Marshall
L:1/8
Q:1/8=232
M:4/4
K:G
V:1 treble 
V:1
 c |: BG (3(Bcd) B2 GA | =Fc Ac =fc fa | gd (3(gab) g2 dc | Bd ef gd gb | BG (3(Bcd) B2 GA | %6
 =Fc Ac =fc fa | gd (3(gab) g2 dc | Bd ef gd gb | (3(Bcd) Gd Bd Gd | A=F Ac =fc fa | %11
 (3(Bcd) Gd Bd Gd | Bd ef gd gb | (3(Bcd) Gd Bd Gd | A=F Ac =fc fa | (3(bag) (3(agf) g2 dc | %16
 Bd ef gd gb :| %17

